public/technologies/graphql_icon.svg

<svg width="128" height="128" viewBox="0 0 128 128" fill="none" xmlns="http://www.w3.org/2000/svg">
<g clip-path="url(#clip0_66_6378)">
<path d="M17.4101 97.5529L12.7168 94.8393L65.0603 4.18115L69.7536 6.89475L17.4101 97.5529Z" fill="#E10098"/>
<path d="M11.6372 87.5947H116.333V93.0219H11.6372V87.5947Z" fill="#E10098"/>
<path d="M66.0757 120.883L13.7109 90.6497L16.4245 85.9563L68.7893 116.19L66.0757 120.883ZM111.567 42.0779L59.1979 11.8486L61.9115 7.15527L114.276 37.3889L111.567 42.0779Z" fill="#E10098"/>
<path d="M16.4372 42.061L13.7236 37.3676L66.1354 7.12549L68.849 11.8188L16.4372 42.061Z" fill="#E10098"/>
<path d="M110.602 97.5531L58.2504 6.88645L62.9438 4.17285L115.296 94.8395L110.602 97.5531ZM15.7886 33.7665H21.2158V94.2337H15.7886V33.7665ZM106.788 33.7665H112.215V94.2337H106.788V33.7665Z" fill="#E10098"/>
<path d="M65.1541 118.584L62.7861 114.479L108.333 88.1836L110.701 92.2881L65.1541 118.584Z" fill="#E10098"/>
<path d="M119.405 95.9998C117.889 98.6182 115.397 100.529 112.474 101.313C109.552 102.098 106.438 101.692 103.814 100.185C101.196 98.6693 99.2854 96.1771 98.5009 93.2549C97.7163 90.3327 98.1219 87.2187 99.6289 84.595C101.145 81.9767 103.637 80.0659 106.559 79.2814C109.482 78.4969 112.596 78.9025 115.219 80.4094C120.71 83.5796 122.575 90.5428 119.401 95.9998M28.3414 43.4089C26.8252 46.0273 24.3331 47.938 21.4109 48.7225C18.4887 49.507 15.3747 49.1014 12.751 47.5945C10.1315 46.0783 8.21992 43.5854 7.43533 40.6622C6.65074 37.739 7.05712 34.6239 8.56539 31.9998C10.0816 29.3815 12.5737 27.4707 15.4959 26.6862C18.4181 25.9017 21.5321 26.3073 24.1558 27.8142C26.7742 29.3304 28.6849 31.8225 29.4694 34.7447C30.2539 37.6669 29.8483 40.7852 28.3414 43.4089ZM8.59953 95.9998C7.0926 93.3761 6.68698 90.2621 7.47151 87.3399C8.25604 84.4177 10.1668 81.9256 12.7851 80.4094C15.4088 78.9025 18.5228 78.4969 21.445 79.2814C24.3672 80.0659 26.8594 81.9767 28.3755 84.595C29.8825 87.2187 30.2881 90.3327 29.5035 93.2549C28.719 96.1771 26.8083 98.6693 24.1899 100.185C18.6987 103.321 11.7313 101.461 8.59953 95.9998ZM99.663 43.4132C98.1561 40.7894 97.7505 37.6754 98.535 34.7533C99.3195 31.8311 101.23 29.3389 103.849 27.8228C106.472 26.3158 109.586 25.9102 112.508 26.6947C115.431 27.4793 117.923 29.39 119.439 32.0084C120.946 34.6321 121.352 37.7461 120.567 40.6683C119.782 43.5904 117.872 46.0826 115.253 47.5988C112.63 49.1057 109.516 49.5113 106.594 48.7268C103.671 47.9422 101.179 46.0315 99.663 43.4132ZM64.0022 128C61.7455 128 59.5395 127.331 57.6632 126.077C55.7869 124.823 54.3246 123.041 53.4612 120.956C52.5978 118.871 52.3721 116.577 52.8127 114.363C53.2532 112.15 54.3403 110.117 55.9363 108.522C57.5323 106.926 59.5656 105.84 61.779 105.4C63.9924 104.961 66.2866 105.187 68.3712 106.051C70.4559 106.916 72.2374 108.379 73.4906 110.255C74.7437 112.132 75.4121 114.338 75.4113 116.595C75.4034 119.618 74.1987 122.515 72.0607 124.652C69.9226 126.789 67.0253 127.993 64.0022 128ZM64.0022 22.818C62.5033 22.8202 61.0187 22.5266 59.6335 21.9541C58.2483 21.3815 56.9896 20.5412 55.9298 19.4813C54.8699 18.4214 54.0296 17.1628 53.457 15.7776C52.8845 14.3924 52.5909 12.9078 52.5931 11.4089C52.5931 8.38358 53.7949 5.48218 55.9341 3.34297C58.0734 1.20375 60.9748 0.00195313 64.0001 0.00195312C67.0254 0.00195313 69.9268 1.20375 72.066 3.34297C74.2052 5.48218 75.407 8.38358 75.407 11.4089C75.4087 12.9071 75.1148 14.3909 74.5423 15.7753C73.9697 17.1598 73.1297 18.4177 72.0704 19.4771C71.011 20.5364 69.7531 21.3764 68.3686 21.949C66.9842 22.5215 65.5004 22.8196 64.0022 22.818Z" fill="#E10098"/>
</g>
<defs>
<clipPath id="clip0_66_6378">
<rect width="128" height="128" fill="white"/>
</clipPath>
</defs>
</svg>

<svg xmlns="http://www.w3.org/2000/svg" width="128" height="128" fill="none"><g fill="#E10098" clip-path="url(#a)"><path d="m17.41 97.553-4.693-2.714L65.06 4.181l4.694 2.714L17.41 97.553Z"/><path d="M11.637 87.595h104.696v5.427H11.637v-5.427Z"/><path d="M66.076 120.883 13.71 90.65l2.713-4.694L68.79 116.19l-2.713 4.693Zm45.491-78.805-52.37-30.23 2.714-4.693 52.365 30.234-2.709 4.689Z"/><path d="m16.437 42.061-2.713-4.693L66.135 7.125l2.714 4.694L16.437 42.06Z"/><path d="M110.602 97.553 58.25 6.886l4.694-2.713 52.352 90.666-4.694 2.714ZM15.789 33.767h5.427v60.467h-5.427V33.767Zm90.999 0h5.427v60.467h-5.427V33.767Z"/><path d="m65.154 118.584-2.368-4.105 45.547-26.295 2.368 4.104-45.547 26.296Z"/><path d="M119.405 96a11.433 11.433 0 0 1-15.591 4.185 11.433 11.433 0 0 1-4.185-15.59 11.434 11.434 0 0 1 15.59-4.186c5.491 3.17 7.356 10.134 4.182 15.59m-91.06-52.59a11.434 11.434 0 0 1-15.59 4.185A11.435 11.435 0 0 1 8.565 32a11.435 11.435 0 0 1 15.59-4.186 11.434 11.434 0 0 1 4.186 15.595ZM8.6 95.999a11.435 11.435 0 0 1 4.185-15.59 11.435 11.435 0 0 1 15.59 4.186 11.434 11.434 0 0 1-4.185 15.59C18.699 103.321 11.73 101.461 8.6 96Zm91.063-52.586a11.435 11.435 0 0 1 4.186-15.59 11.432 11.432 0 0 1 15.59 4.185 11.432 11.432 0 0 1-4.186 15.59 11.432 11.432 0 0 1-15.59-4.185ZM64.003 128a11.408 11.408 0 0 1-8.067-19.478 11.408 11.408 0 0 1 19.475 8.073A11.434 11.434 0 0 1 64.002 128Zm0-105.182a11.394 11.394 0 0 1-11.41-11.41 11.407 11.407 0 1 1 22.814 0 11.392 11.392 0 0 1-7.038 10.541c-1.385.572-2.869.87-4.367.869Z"/></g><defs><clipPath id="a"><path fill="#fff" d="M0 0h128v128H0z"/></clipPath></defs></svg>
